_site/images/homepage/data-escrow.svg

<svg fill="none" height="80" viewBox="0 0 80 80" width="80" xmlns="http://www.w3.org/2000/svg"><rect fill="#00a0b6" height="80" rx="25" width="80"/><path clip-rule="evenodd" d="m60.5317 44.5813c0-2.1789-1.7715-3.9453-3.9567-3.9453h-11.8698c-2.1852 0-3.9566 1.7664-3.9566 3.9453h-5.9349v-5.9179h4.6094c3.5509.0059 6.5821-2.5567 7.1571-6.0506.575-3.494-1.4759-6.8881-4.8425-8.0141-1.8559-3.8591-5.9962-6.0843-10.2494-5.5087-4.2533.5757-7.6488 3.8208-8.406 8.0336-2.7674.907-4.4655 3.6825-4.0082 6.5511.4574 2.8686 2.935 4.9822 5.848 4.9887h5.935v15.7809c0 1.0895.8857 1.9727 1.9783 1.9727h7.9132c0 2.1788 1.7714 3.9452 3.9566 3.9452h11.8698c2.1852 0 3.9567-1.7664 3.9567-3.9452v-3.9453c-.0073-.6947-.1984-1.3752-.554-1.9726.3556-.5974.5467-1.2779.554-1.9726zm-35.6109-9.8622c-1.0926 0-1.9784-.8832-1.9784-1.9726 0-1.0895.8858-1.9726 1.9784-1.9726 1.0925 0 1.9783-.8832 1.9783-1.9727-.033-2.908 2.058-5.409 4.9328-5.8998 2.8748-.4909 5.6812 1.1739 6.6205 3.9272.2364.6831.8284 1.1825 1.543 1.302 1.6068.2652 2.7717 1.6708 2.7301 3.2942 0 1.8194-1.4791 3.2943-3.3038 3.2943zm9.8924 17.753h5.9349c.0073-.6947.1984-1.3752.554-1.9726-.3556-.5975-.5467-1.2779-.554-1.9726h-5.9349zm9.896 3.9443v-3.9452h11.8698v3.9452zm0-11.8339v3.9452h11.8698v-3.9452z" fill="#fff" fill-rule="evenodd"/></svg>

<svg width="80" height="80" viewBox="0 0 80 80" fill="none" xmlns="http://www.w3.org/2000/svg">
<rect width="80" height="80" rx="25" fill="#00A0B6"/>
<path fill-rule="evenodd" clip-rule="evenodd" d="M60.5317 44.5813C60.5317 42.4024 58.7602 40.636 56.575 40.636H44.7052C42.52 40.636 40.7486 42.4024 40.7486 44.5813H34.8137V38.6634H39.4231C42.974 38.6693 46.0052 36.1067 46.5802 32.6128C47.1552 29.1188 45.1043 25.7247 41.7377 24.5987C39.8818 20.7396 35.7415 18.5144 31.4883 19.09C27.235 19.6657 23.8395 22.9108 23.0823 27.1236C20.3149 28.0306 18.6168 30.8061 19.0741 33.6747C19.5315 36.5433 22.0091 38.6569 24.9221 38.6634H30.8571V54.4443C30.8571 55.5338 31.7428 56.417 32.8354 56.417H40.7486C40.7486 58.5958 42.52 60.3622 44.7052 60.3622H56.575C58.7602 60.3622 60.5317 58.5958 60.5317 56.417V52.4717C60.5244 51.777 60.3333 51.0965 59.9777 50.4991C60.3333 49.9017 60.5244 49.2212 60.5317 48.5265V44.5813ZM24.9208 34.7191C23.8282 34.7191 22.9424 33.8359 22.9424 32.7465C22.9424 31.657 23.8282 30.7739 24.9208 30.7739C26.0133 30.7739 26.8991 29.8907 26.8991 28.8012C26.8661 25.8932 28.9571 23.3922 31.8319 22.9014C34.7067 22.4105 37.5131 24.0753 38.4524 26.8286C38.6888 27.5117 39.2808 28.0111 39.9954 28.1306C41.6022 28.3958 42.7671 29.8014 42.7255 31.4248C42.7255 33.2442 41.2464 34.7191 39.4217 34.7191H24.9208ZM34.8132 52.4721H40.7481C40.7554 51.7774 40.9465 51.0969 41.3021 50.4995C40.9465 49.902 40.7554 49.2216 40.7481 48.5269H34.8132V52.4721ZM44.7092 56.4164V52.4712H56.579V56.4164H44.7092ZM44.7092 44.5825V48.5277H56.579V44.5825H44.7092Z" fill="white"/>
</svg>
